X: 6348
T: Casey's Favourite
R: strathspey
M: 4/4
K: Dmajor
|:A>d (3Bcd A2 F>G|A2 d>f g<ee>f|(3fed B>d A2 F>G|(3ABA d>e f<d d2:|
|:f<a a2 f>a d2|e>fe>d c<e A2|1 f<a a2 (3fga d>f|A>Bd>e f<d d2:|2 B>dc>e (3def e>g|f<ba>g f<d d2||

